build/img/svg/categori.svg

<svg width="18" height="18" viewBox="0 0 18 18" fill="none" xmlns="http://www.w3.org/2000/svg">
<path d="M7 0H1C0.734784 0 0.48043 0.105357 0.292893 0.292893C0.105357 0.48043 0 0.734784 0 1V7C0 7.26522 0.105357 7.51957 0.292893 7.70711C0.48043 7.89464 0.734784 8 1 8H7C7.26522 8 7.51957 7.89464 7.70711 7.70711C7.89464 7.51957 8 7.26522 8 7V1C8 0.734784 7.89464 0.48043 7.70711 0.292893C7.51957 0.105357 7.26522 0 7 0ZM6 6H2V2H6V6ZM17 0H11C10.7348 0 10.4804 0.105357 10.2929 0.292893C10.1054 0.48043 10 0.734784 10 1V7C10 7.26522 10.1054 7.51957 10.2929 7.70711C10.4804 7.89464 10.7348 8 11 8H17C17.2652 8 17.5196 7.89464 17.7071 7.70711C17.8946 7.51957 18 7.26522 18 7V1C18 0.734784 17.8946 0.48043 17.7071 0.292893C17.5196 0.105357 17.2652 0 17 0ZM16 6H12V2H16V6ZM7 10H1C0.734784 10 0.48043 10.1054 0.292893 10.2929C0.105357 10.4804 0 10.7348 0 11V17C0 17.2652 0.105357 17.5196 0.292893 17.7071C0.48043 17.8946 0.734784 18 1 18H7C7.26522 18 7.51957 17.8946 7.70711 17.7071C7.89464 17.5196 8 17.2652 8 17V11C8 10.7348 7.89464 10.4804 7.70711 10.2929C7.51957 10.1054 7.26522 10 7 10ZM6 16H2V12H6V16ZM14 10C11.794 10 10 11.794 10 14C10 16.206 11.794 18 14 18C16.206 18 18 16.206 18 14C18 11.794 16.206 10 14 10ZM14 16C12.897 16 12 15.103 12 14C12 12.897 12.897 12 14 12C15.103 12 16 12.897 16 14C16 15.103 15.103 16 14 16Z" fill="#B7587C"/>
</svg>

<svg width="18" height="18" viewBox="0 0 18 18" fill="none" xmlns="http://www.w3.org/2000/svg"><path d="M7 0H1a1 1 0 00-1 1v6a1 1 0 001 1h6a1 1 0 001-1V1a1 1 0 00-1-1zM6 6H2V2h4v4zm11-6h-6a1 1 0 00-1 1v6a1 1 0 001 1h6a1 1 0 001-1V1a1 1 0 00-1-1zm-1 6h-4V2h4v4zm-9 4H1a1 1 0 00-1 1v6a1 1 0 001 1h6a1 1 0 001-1v-6a1 1 0 00-1-1zm-1 6H2v-4h4v4zm8-6c-2.206 0-4 1.794-4 4s1.794 4 4 4 4-1.794 4-4-1.794-4-4-4zm0 6c-1.103 0-2-.897-2-2s.897-2 2-2 2 .897 2 2-.897 2-2 2z" fill="#B7587C"/></svg>
